!!!COM: Scriabin, Alexander
!!!OTL@@FR: Prélude en sol majeur
!!!OTL@@EN: Prelude in G Major
!!!OPR@@FR: 6 Préludes
!!!OPR@@EN: 6 Preludes
!!!OPS: 13
!!!ONM: 3
!!!ODT: 1895
!!!AGN: Prelude
**kern	**kern	**dynam
*staff2	*staff1	*staff1/2
*Ipiano	*Ipiano	*
*clefF4	*clefG2	*
*k[f#]	*k[f#]	*
*G:	*G:	*
*M3/4	*M3/4	*
8DL	4r	.
8GJ	.	.
=1	=1	=1
12AL	4d 4g 4dd	.
12D	.	.
12AJ	.	.
[4d	4g 4a	.
12dL]	4f# 4b	.
12D	.	.
12cJ	.	.
=2	=2	=2
12BL	4g 4dd	.
12D	.	.
12GJ	.	.
12dL	4g 4b 4gg	.
12e	.	.
12dJ	.	.
12BL	4g 4ee	.
12D	.	.
12GJ	.	.
=3	=3	=3
12AL	4d 4g 4dd	.
12D	.	.
12AJ	.	.
[4d	4g 4a	.
12dL]	4f# 4b	.
12D	.	.
12cJ	.	.
=4	=4	=4
12BL	4d 4g 4dd	.
12D	.	.
12GJ	.	.
12dL	4g 4b 4gg	.
12e	.	.
12dJ	.	.
12BL	4g 4dd 4ff#	.
12E	.	.
12BJ	.	.
=5	=5	=5
*	*^	*
12cL	4e 4g	4ee	.
12B	.	.	.
[12AJ	.	.	.
4A_ 4g	4e	4.cc	.
12AL]	4e 4g	.	.
12E	.	.	.
.	.	8b	.
12BJ	.	.	.
*	*v	*v	*
=6	=6	=6
12cL	4e 4g 4a	.
12B	.	.
12AJ	.	.
12aL	4g 4cc 4ff#	.
12e	.	.
12AJ	.	.
6e	4g 4cc 4ee	.
12A	.	.
=7	=7	=7
*	*^	*
4B	4f#	2dd	.
6B	4d 4f#	.	.
12B	.	.	.
12BL	4c 4f#	4dd	.
12A	.	.	.
12GJ	.	.	.
=8	=8	=8	=8
12GL	2B 2g	2.dd	.
12D	.	.	.
12AJ	.	.	.
4G	.	.	.
12r	4g 4b	.	.
12GL	.	.	.
12dJ	.	.	.
=9	=9	=9	=9
12e-XL	4g 4b-X	4gg	.
12d	.	.	.
[12cJ	.	.	.
4c_ 4b-X	4g	4.ee-X	.
12cL]	4g 4b-	.	.
12G	.	.	.
.	.	8dd	.
12dJ	.	.	.
*	*v	*v	*
=10	=10	=10
12e-XL	4g 4b-X 4cc	.
12d	.	.
12cJ	.	.
12ccL	4b- 4ee-X 4aa	.
12g	.	.
12cJ	.	.
6g	4b- 4ee- 4gg	.
12c	.	.
=11	=11	=11
*	*^	*
4.d	4a	2ffn	.
.	4fn 4a	.	.
8d	.	.	.
12dL	4e-X 4a	4ff	.
12c	.	.	.
12B-XJ	.	.	.
=12	=12	=12	=12
12B-XL	2d 2b-X	2.ffn	.
12Fn	.	.	.
12cJ	.	.	.
4B-	.	.	.
12r	4fn 4b-	.	.
12FL	.	.	.
12cJ	.	.	.
=13	=13	=13	=13
12d-XL	4fn 4a-X	4ffn	.
12c	.	.	.
[12B-XJ	.	.	.
4B-_ 4a-X	4f	4.dd-X	.
12B-L]	4f 4a-	.	.
12Fn	.	.	.
.	.	8cc	.
12cJ	.	.	.
*	*v	*v	*
=14	=14	=14
12d-XL	4fn 4a-X 4b-X	.
12c	.	.
12B-XJ	.	.
12b-XL	4a- 4dd-X 4gg	.
12fn	.	.
12B-J	.	.
6f	4a- 4dd- 4ffn	.
12B-	.	.
=15	=15	=15
*	*^	*
4.c	4g	2ee-X	.
.	4e-X 4g	.	.
8c	.	.	.
12cL	4d-X 4g	4ee-	.
12B-X	.	.	.
12A-XJ	.	.	.
=16	=16	=16	=16
12A-XL	4c 4a-X	2ee-X	.
12E-X	.	.	.
12B-XJ	.	.	.
4A-	4c 4a-	.	.
4A#X	4e-X 4g	4cc#X	.
=17	=17	=17	=17
4.B	4d 4g	2dd	.
.	4d 4g	.	.
8B	.	.	.
12BL	4c 4f#	4dd	.
12A	.	.	.
12GJ	.	.	.
=18	=18	=18	=18
12GL	2B 2g	2dd	.
12D	.	.	.
12AJ	.	.	.
12GL	.	.	.
12D	.	.	.
12GJ	.	.	.
*	*v	*v	*
12dL	4r	.
12B	.	.
12gJ	.	.
=19	=19	=19
2dd	4r	.
.	4r	.
4GG 4D 4G	4B 4g 4b	.
=20	=20	=20
[2.GG [2.D [2.G	[2.B [2.g [2.b	.
=21	=21	=21
2.GG] 2.D] 2.G]	2.B] 2.g] 2.b]	.
==	==	==
*-	*-	*-
!!!system-decoration: {(*)}
!!!filter: flipper -a
!!!ENC: Bryan Jacob Bell
!!!END: November 2021 to April 2022
!!!PED: Günter Philipp
!!!PTL: Ausgewählte Klavierwerke (Edition Peters)
